16x16/actions/media-repeat-none.svg

<svg viewBox="0 0 16 16" xmlns="http://www.w3.org/2000/svg"><path d="m11 3.5v1.5h-6c-1.662 0-3 1.338-3 3h1c0-1.108.892-2 2-2h6v1.5l3-2zm-6 5-3 2 3 2v-1.5h2v-1h-2z" fill="#8b9cbe"/><path d="m8.99 8-.99.99 2.01 2.01-2.01 2.01.99.99 2.01-2.01 2.01 2.01.99-.99-2.01-2.01 2.01-2.01-.99-.99-2.01 2.01z" fill="#da4453"/></svg>

<svg xmlns="http://www.w3.org/2000/svg" viewBox="0 0 16 16"><path style="fill:currentColor;fill-opacity:1;stroke:none;color:#8b9cbe" d="M11 3.5V5H5C3.338 5 2 6.338 2 8h1c0-1.108.892-2 2-2h6v1.5l3-2-3-2zm-6 5-3 2 3 2V11h2v-1H5V8.5z"/><path style="fill:currentColor;fill-opacity:1;stroke:none;color:#da4453" d="M8.99 8 8 8.99 10.01 11 8 13.01l.99.99L11 11.99 13.01 14l.99-.99L11.99 11 14 8.99 13.01 8 11 10.01z"/></svg>
